X:1
T:Quest'Amore, quest'arsura
T:Claudio Saracini
T:Source : Le secondo Musische per cantar e sonar---Venetia---A.Vincenti---1620. Editor : André Vierendeels (04/12/15).
T:Notes : Original clefs : C1, F4 Editorial accidentals above the staff 
T:Quest'Amore, quest'arsura
T:Aria
C:Claudio Saracini
%%score 1 2
L:1/8
Q:1/4=120
M:4/4
K:F
V:1 treble nm="Soprano" snm="S"
V:2 bass nm="BC" snm="BC"
V:1
 z2 GA BGBc | d4 d4 | z2 de fdgf | e4 d4 :: z2 dc dABc | d4 c4 | z2 GA BGcB | A8 | G8 :| %9
w: Que- st'A- mo- re, que- st'ar-|su- ra,|che mi strug- g'è m'ard' il|pet- to.|Un ar- do- re, u- na|cu- ra,|e che m'em- pie di so-|spet-|to.|
w: Que- st'A- mo- re, que- sta|Mor- te,|ond' io vi- vo'in un bel|vi- so.|E'un o- ro- ro, co- si|for- te,|che tor- men- ta'il cor an-|ci-|so.|
w: Que- st'A- mo- re, que- st'af-|fan- no,|che lu- sin- go'e co- vo'in|se- no.|Un Si- gno- re, un ti-|ran- no,|e chi m'em- pie di ve-|le-|no.|
w: Que- st'A- mo- re, que- sta|spe- me,|che se non fus- se'al mio|de- sio.|E'un ti- mo- re che mi|tie- ne,|di me stes- so'in fer' o-|bli-|o.|
w: Que- st'A- mo- re, que- sta|gio- ia,|per cui la- gri- mo'e so-|spi- ro.|Un do- lo- re, u- na|no- ia,|e ch'ac- cre- sce'il mio mar-|ti-|ro.|
V:2
 G,,8 | G,,8 | D,4 G,,2 A,,2- | A,,4 D,4 :: D,4 D,,2 B,,2 | B,,4 F,,4 | G,,4 G,,2 C,2 | D,8 | %8
 G,,8 :| %9

